src/images/eslint.svg

<svg width="233" height="233" viewBox="0 0 233 233" fill="none" xmlns="http://www.w3.org/2000/svg">
<path d="M98.6258 202.752L33 143.66L51.381 57.2842L135.316 30L200.942 89.0919L182.561 175.468L98.6258 202.752ZM66.8899 132.675L106.021 167.857L156.066 151.558L167.052 100.077L127.92 64.8233L77.8754 81.1939L66.8899 132.675Z" fill="#3A33D1"/>
<path d="M152.261 177.55H81.6808L46.3549 116.376L81.6808 55.202H152.261L187.587 116.376L152.261 177.55ZM94.1023 156.01H139.839L162.744 116.376L139.839 76.7422H94.1023L71.2697 116.376L94.1023 156.01Z" fill="#6464E2"/>
</svg>

<svg width="233" height="233" fill="none" xmlns="http://www.w3.org/2000/svg"><path d="M98.626 202.752L33 143.66l18.381-86.376L135.316 30l65.626 59.092-18.381 86.376-83.935 27.284zM66.89 132.675l39.131 35.182 50.045-16.299 10.986-51.481-39.132-35.254-50.045 16.37-10.985 51.482z" fill="#3A33D1"/><path d="M152.261 177.55h-70.58l-35.326-61.174L81.68 55.202h70.58l35.326 61.174-35.326 61.174zm-58.159-21.54h45.737l22.905-39.634-22.905-39.634H94.102L71.27 116.376l22.832 39.634z" fill="#6464E2"/></svg>
